X: 985
T: Tugboat
B: jims roots
M:C|
L:1/8
R: Reel
Q: 1/4=100
K:G
V:1 
%N:Transcribed from playing of Bob Walters
ef | "G"g2 d2 efga | b2gb agef | gedg efge | "D"a2 ab agef |
"G"gage dega | bagb agef | gfge dged | [1 "D"BGAF "G"G2 :| [2 "D"BGAF "G"G4 ||
|: "G"[G_B]-[G3=B3]+slide+[G3B3]_B- | =BdeB dBAG | DEGA BGBG | "D"BAGB AGEF |
"G"DEGA BAGA | BdeB d2ga | bgag eged | [1 "D"BGAF "G"G4 :| [2 "D"BGAF "G"G2 |]
% abcbook-tune_id 6298c297d6ba34d768dd8d9e


% abcbook-boost 0
% abcbook-tablature 
% abcbook-transpose 
% abcbook-lastupdated 1654178456336
% abcbook-soundfonts 
% abcbook-repeats 1


